logos/wordpress-icon-alt.svg

<?xml version="1.0" encoding="UTF-8"?>
<svg width="256px" height="256px" viewBox="0 0 256 256" version="1.1" xmlns="http://www.w3.org/2000/svg" preserveAspectRatio="xMidYMid">
    <title>Wordpress</title>
    <g>
        <path d="M16.9353846,128 C16.9353846,172.012308 42.5353846,209.92 79.5569231,227.938462 L26.5846154,82.8061538 C20.2237551,97.0239064 16.9353846,112.424217 16.9353846,128 L16.9353846,128 Z M128,239.064615 C140.898462,239.064615 153.304615,236.8 164.923077,232.763077 L164.135385,231.286154 L129.969231,137.747692 L96.6892308,234.535385 C106.535385,237.489231 117.070769,239.064615 128,239.064615 Z M143.261538,75.9138462 L183.433846,195.347692 L194.56,158.326154 C199.286154,142.966154 202.929231,131.938462 202.929231,122.387692 C202.929231,108.603077 198.006154,99.1507692 193.870769,91.8646154 C188.16,82.6092308 182.941538,74.8307692 182.941538,65.7723077 C182.941538,55.5323077 190.621538,46.08 201.649231,46.08 L203.027692,46.08 C182.562867,27.2926617 155.780767,16.8891163 128,16.9352309 C90.6335039,16.9284152 55.772621,35.728127 35.2492308,66.9538462 L42.3384615,67.1507692 C53.9569231,67.1507692 71.8769231,65.6738462 71.8769231,65.6738462 C77.9815385,65.3784615 78.6707692,74.1415385 72.6646154,74.8307692 C72.6646154,74.8307692 66.6584615,75.6184615 59.8646154,75.9138462 L100.430769,196.233846 L124.750769,123.372308 L107.421538,75.9138462 C103.5399,75.699654 99.6654033,75.3713068 95.8030769,74.9292308 C89.7969231,74.5353846 90.4861538,65.3784615 96.4923077,65.6738462 C96.4923077,65.6738462 114.806154,67.1507692 125.735385,67.1507692 C137.353846,67.1507692 155.273846,65.6738462 155.273846,65.6738462 C161.28,65.3784615 162.067692,74.1415385 156.061538,74.8307692 C156.061538,74.8307692 150.055385,75.52 143.261538,75.9138462 Z M183.827692,224 C218.020436,204.118428 239.05976,167.552757 239.064615,128 C239.064615,108.701538 234.141538,90.5846154 225.476923,74.7323077 C227.236506,92.1726223 224.59603,109.775796 217.796923,125.932308 L183.827692,224 L183.827692,224 Z M128,256 C57.307552,256 0,198.692448 0,128 C0,57.307552 57.307552,0 128,0 C198.692448,0 256,57.307552 256,128 C256,198.692448 198.692448,256 128,256 Z" fill="#000000"></path>
    </g>
</svg>

<svg preserveAspectRatio="xMidYMid" viewBox="0 0 256 256" xmlns="http://www.w3.org/2000/svg">
  <path d="M16.935 128c0 44.012 25.6 81.92 62.622 99.938L26.585 82.806A110.666 110.666 0 0 0 16.935 128ZM128 239.065c12.898 0 25.305-2.265 36.923-6.302l-.788-1.477-34.166-93.538-33.28 96.787c9.846 2.954 20.382 4.53 31.311 4.53Zm15.262-163.151 40.172 119.434 11.126-37.022c4.726-15.36 8.37-26.388 8.37-35.938 0-13.785-4.924-23.237-9.06-30.523-5.71-9.256-10.928-17.034-10.928-26.093 0-10.24 7.68-19.692 18.707-19.692h1.379A110.672 110.672 0 0 0 128 16.935a110.967 110.967 0 0 0-92.75 50.019l7.088.197c11.619 0 29.539-1.477 29.539-1.477 6.105-.296 6.794 8.468.788 9.157 0 0-6.007.787-12.8 1.083l40.566 120.32 24.32-72.862-17.33-47.458a198.203 198.203 0 0 1-11.618-.985c-6.006-.394-5.317-9.55.69-9.255 0 0 18.313 1.477 29.242 1.477 11.619 0 29.539-1.477 29.539-1.477 6.006-.296 6.794 8.468.788 9.157 0 0-6.007.689-12.8 1.083ZM183.828 224a111.065 111.065 0 0 0 55.237-96c0-19.298-4.923-37.415-13.588-53.268a104.858 104.858 0 0 1-7.68 51.2L183.827 224ZM128 256C57.308 256 0 198.692 0 128 0 57.308 57.308 0 128 0c70.692 0 128 57.308 128 128 0 70.692-57.308 128-128 128Z"/>
</svg>
